!!!OTL: Die erzwungene Ehe 'Gaden Owend, ir Kechane, wa git et ech?'
!!!ARE: Europa, Suedosteuropa, Rumaenien, Siebenbuergen
!!!YOR: 2, S. 250
!!    1931 gedruckt in Herrmannstadt (sehr alt)
!!!SCT: Q1050B
!!!YEM: Copyright 1995, estate of Helmut Schaffrath.
**kern
*ICvox
*Ivox
*M3/8
*k[b-]
*d:
{16d
16e
=1
8fn
8e
16d
16e
=2
8d
16cn
16cn
8fn
=3
8a
8fn
8g
=4
4a}
{24g
24a
24g
=5
4fn
16cn
16fn
=6
4d
16g
16a
=7
4fn
8e
=8
8d
8r}
==
!!!AGN: Hochzeits - Lied, Brauchtum
!! Melodievergleich zu Q0050, anderes Lied.
!!!ONB: ESAC (Essen Associative Code) Database: BALLADE
!!!AMT: simple triple
!!!AIN: vox
!!!EED: Helmut Schaffrath
!!!EEV: 1.0
*-
